X: 320
T: THE ROMANTIC KERRYMAN
T: An ciarraigheach finnsgeulach
B: O'Neill's 320
M: 3/4
L: 1/4
Z: 1999 by John Chambers <jc@trillian.mit.edu>
N: "With spirit"
N: "Collected by F.O'Neill"
K:D
(A/G/) \
| (FED) | (F2G) | A2(A/G/) | (ABc) \
| .d.d.d | .c.d.c | .A.B.c | d2(A/G/) |
| (FED) | (F2G) | A2(A/G/) | ABc \
| dfd | cAG | FDD | D2 ||
|| (A/G/) \
| (FGA) | (ABc) | d2e | fed \
| cBA | ABc | d3- | d2(d/e/) |
| .f.e.d | .c.A.G | FDE | FGA \
| Add | cAG | FDD | D2 ||


